src/icons/svg/discovery.svg

<?xml version="1.0" encoding="UTF-8"?>
<svg width="175px" height="172px" viewBox="0 0 175 172" version="1.1" xmlns="http://www.w3.org/2000/svg" xmlns:xlink="http://www.w3.org/1999/xlink">
    <title>编组</title>
    <g id="页面-1" stroke="none" stroke-width="1" fill="none" fill-rule="evenodd">
        <g id="编组" fill="#000000" fill-rule="nonzero">
            <path d="M173.785375,165.454861 L123.361962,115.009064 C137.448412,98.2738101 143.521494,75.2018529 137.651474,52.4540759 C128.018006,15.1217873 89.8109099,-7.40014283 52.4770224,2.22233315 C34.3936829,6.89116772 19.2091781,18.3220175 9.72181048,34.4071119 C0.234442898,50.4958037 -2.41955769,69.3134455 2.24727825,87.3967849 C6.91431399,105.480124 18.3433652,120.666428 34.432057,130.153995 C45.3350648,136.583636 57.4928218,139.875204 69.8298572,139.875204 C75.6914829,139.875204 81.5950804,139.12991 87.4219298,137.628528 C99.4151984,134.532427 109.877505,128.483928 118.240035,120.466763 L168.495562,170.744875 C169.224268,171.475579 170.183418,171.840932 171.140568,171.840932 C172.097719,171.840932 173.054871,171.475579 173.785575,170.744875 C175.246584,169.283466 175.246584,166.916271 173.785375,165.454861 Z M85.551198,130.380442 C69.402147,134.552413 52.5955419,132.177823 38.2312808,123.705967 C23.865021,115.234111 13.6597404,101.677103 9.49156634,85.5262533 C5.32319251,69.3790011 7.69418489,52.5743947 16.1660409,38.2099337 C24.6396958,23.8418753 38.1985029,13.6347956 54.3475538,9.47021928 C59.5606195,8.12213334 64.7902738,7.47916928 69.9393825,7.47916928 C97.7275421,7.47916928 123.148307,26.2018753 130.407185,54.3242083 C135.890068,75.5734013 129.699865,97.1395794 115.85805,112.213559 C115.752321,112.298502 115.649591,112.388841 115.551457,112.486774 C115.398161,112.64007 115.264852,112.804958 115.143734,112.976043 C107.36301,121.170886 97.2760486,127.355893 85.551198,130.380442 Z" id="形状"></path>
            <path d="M91.6046937,27.1300456 C86.1485929,23.9152253 79.7609238,23.0164347 73.6272824,24.5947646 C71.6270386,25.1136128 70.4234546,27.1520308 70.940304,29.1538736 C71.4553548,31.1559162 73.492174,32.3505062 75.4976142,31.8426505 C84.1721329,29.6031689 93.0403202,34.8382195 95.2798019,43.5073419 C95.7145072,45.1951976 97.2342767,46.3130396 98.9001472,46.3130396 C99.2089378,46.3130396 99.5229249,46.2764644 99.8371118,46.1925212 C101.837156,45.6774705 103.04094,43.6388527 102.52409,41.6370099 C100.940364,35.5031687 97.0625933,30.3484636 91.6046937,27.1300456 Z" id="路径"></path>
        </g>
    </g>
</svg>

<svg width="175" height="172" xmlns="http://www.w3.org/2000/svg"><g fill="currentColor" fill-rule="nonzero"><path d="M173.785 165.455l-50.423-50.446c14.086-16.735 20.16-39.807 14.29-62.555C128.017 15.122 89.81-7.4 52.476 2.222c-18.083 4.67-33.268 16.1-42.755 32.185C.234 50.496-2.42 69.313 2.247 87.397c4.667 18.083 16.096 33.27 32.185 42.757 10.903 6.43 23.06 9.721 35.398 9.721 5.861 0 11.765-.745 17.592-2.246a69.496 69.496 0 0 0 30.818-17.162l50.256 50.278a3.725 3.725 0 0 0 2.645 1.096 3.74 3.74 0 0 0 2.645-6.386zM85.551 130.38c-16.149 4.172-32.955 1.798-47.32-6.674-14.366-8.472-24.571-22.029-28.74-38.18C5.324 69.38 7.695 52.574 16.167 38.21 24.64 23.842 38.199 13.635 54.348 9.47a62.204 62.204 0 0 1 15.591-1.99c27.789 0 53.21 18.722 60.468 46.844 5.483 21.25-.707 42.816-14.549 57.89a3.814 3.814 0 0 0-.307.273 3.751 3.751 0 0 0-.407.489A62.047 62.047 0 0 1 85.55 130.38z"/><path d="M91.605 27.13c-5.456-3.215-11.844-4.114-17.978-2.535a3.743 3.743 0 0 0 1.87 7.248c8.675-2.24 17.543 2.995 19.783 11.664a3.74 3.74 0 0 0 4.557 2.686 3.738 3.738 0 0 0 2.687-4.556c-1.584-6.134-5.461-11.289-10.92-14.507z"/></g></svg>
